<?xml version="1.0" encoding="UTF-8"?>
<map version="1.10" tiledversion="1.11.2" orientation="orthogonal" renderorder="right-down" width="30" height="20" tilewidth="32" tileheight="32" infinite="1" nextlayerid="2" nextobjectid="1">
 <editorsettings>
  <export target="demo.json" format="json"/>
 </editorsettings>
 <tileset firstgid="1" name="basic_tiles" tilewidth="32" tileheight="32" tilecount="7" columns="7">
  <image source="../../../../../tileset.png" width="224" height="32"/>
  <tile id="0">
   <properties>
    <property name="collide" type="bool" value="true"/>
   </properties>
  </tile>
  <tile id="6">
   <properties>
    <property name="collide" type="bool" value="true"/>
   </properties>
  </tile>
 </tileset>
 <layer id="1" name="layer" width="30" height="20">
  <data encoding="csv">
   <chunk x="-16" y="-16" width="16" height="16">
0,0,0,0,0,0,0,0,0,0,0,0,0,0,0,0,
0,0,0,0,0,0,0,0,0,0,0,0,0,0,0,0,
0,0,0,0,0,0,0,0,1,1,1,1,1,1,1,1,
0,0,0,0,0,0,0,0,1,1,1,1,1,1,1,1,
0,0,0,0,0,0,0,0,1,1,4,4,4,4,4,4,
0,0,0,0,0,0,0,0,1,1,4,4,4,4,4,4,
0,0,0,0,0,0,0,0,1,1,4,4,4,4,4,4,
0,0,0,0,0,0,0,0,1,1,4,4,4,4,4,4,
0,0,0,0,0,0,0,0,1,1,4,4,4,4,4,4,
0,0,0,0,0,0,0,0,1,1,4,4,4,4,4,4,
0,0,0,0,0,0,0,0,1,1,4,4,4,4,4,4,
0,0,0,0,0,0,0,0,1,1,4,4,4,4,4,4,
0,0,0,0,0,0,0,0,1,1,4,4,4,4,4,4,
0,0,0,0,0,0,0,0,1,1,4,4,4,4,4,4,
0,0,0,0,0,0,0,0,1,1,4,4,4,4,4,4,
0,0,0,0,0,0,0,0,1,1,4,4,4,4,4,4
</chunk>
   <chunk x="0" y="-16" width="16" height="16">
0,0,0,0,0,0,0,0,0,0,0,0,0,0,0,0,
0,0,0,0,0,0,0,0,0,0,0,0,0,0,0,0,
1,1,1,1,1,1,1,1,1,1,1,1,1,1,1,1,
1,1,1,1,1,1,1,1,1,1,1,1,1,1,1,1,
4,4,4,4,4,4,4,4,4,4,4,4,4,4,4,4,
4,4,4,4,4,4,4,4,4,4,4,4,4,4,4,4,
4,4,4,4,4,4,4,4,4,4,4,4,4,4,4,4,
4,4,4,4,4,4,4,4,4,4,4,4,4,4,4,4,
4,4,4,4,4,4,4,4,4,4,4,4,4,4,4,4,
4,4,4,4,4,4,4,4,4,4,4,4,4,4,4,4,
4,4,4,4,4,4,4,4,4,4,4,4,4,4,4,4,
4,4,4,4,4,4,4,4,4,4,4,4,4,4,4,4,
4,4,4,4,4,4,4,4,4,4,4,4,4,4,4,4,
4,4,4,4,4,4,4,4,4,4,4,4,4,4,4,4,
4,4,4,4,4,4,4,4,4,4,4,4,4,4,4,4,
4,4,4,4,4,4,4,4,4,4,4,4,4,4,4,4
</chunk>
   <chunk x="16" y="-16" width="16" height="16">
0,0,0,0,0,0,0,0,0,0,0,0,0,0,0,0,
0,0,0,0,0,0,0,0,0,0,0,0,0,0,0,0,
1,1,1,1,1,1,1,1,1,1,1,1,1,1,1,1,
1,1,1,1,1,1,1,1,1,1,1,1,1,1,1,1,
4,4,4,4,4,4,4,4,4,4,4,4,4,4,4,4,
4,4,4,4,4,4,4,4,4,4,4,4,4,4,4,4,
4,4,4,4,4,4,4,4,4,4,4,4,4,4,4,4,
4,4,4,4,4,4,4,4,4,4,4,4,4,4,4,4,
4,4,4,4,4,4,4,4,4,4,4,4,4,4,4,4,
4,4,4,4,4,4,4,4,4,4,4,4,4,4,4,4,
4,4,4,4,4,4,4,4,4,4,4,4,4,4,4,4,
4,4,4,4,4,4,4,4,4,4,4,4,4,4,4,4,
4,4,4,4,4,4,4,4,4,4,4,4,4,4,4,4,
4,4,4,4,4,4,4,4,4,4,4,4,4,4,4,4,
4,4,4,4,4,4,4,4,4,4,4,4,4,4,4,4,
4,4,4,4,4,4,4,4,4,4,4,4,4,4,4,4
</chunk>
   <chunk x="32" y="-16" width="16" height="16">
0,0,0,0,0,0,0,0,0,0,0,0,0,0,0,0,
0,0,0,0,0,0,0,0,0,0,0,0,0,0,0,0,
1,1,1,1,1,1,1,1,1,1,1,1,1,1,1,1,
1,1,1,1,1,1,1,1,1,1,1,1,1,1,1,1,
4,4,4,4,4,4,4,4,4,4,4,4,4,4,4,4,
4,4,4,4,4,4,4,4,4,4,4,4,4,4,4,4,
4,4,4,4,4,4,4,4,4,4,4,4,4,4,4,4,
4,4,4,4,4,4,4,4,4,4,4,4,4,4,4,4,
4,4,4,4,4,4,4,4,4,4,4,4,4,4,4,4,
4,4,4,4,4,4,4,4,4,4,4,4,4,4,4,4,
4,4,4,4,4,4,4,4,4,4,4,4,4,4,4,4,
4,4,4,4,4,4,4,4,4,4,4,4,4,4,4,4,
4,4,4,4,4,4,4,4,4,4,4,4,4,4,4,4,
4,4,4,4,4,4,4,4,4,4,4,4,4,4,4,4,
4,4,4,4,4,4,4,4,4,4,4,4,4,4,4,4,
4,4,4,4,4,4,4,4,4,4,4,4,4,4,4,4
</chunk>
   <chunk x="48" y="-16" width="16" height="16">
0,0,0,0,0,0,0,0,0,0,0,0,0,0,0,0,
0,0,0,0,0,0,0,0,0,0,0,0,0,0,0,0,
1,1,1,1,1,1,1,1,1,1,1,1,1,1,1,1,
1,1,1,1,1,1,1,1,1,1,1,1,1,1,1,1,
4,4,4,4,4,4,4,4,4,4,4,4,4,4,4,4,
4,4,4,4,4,4,4,4,4,4,4,4,4,4,4,4,
4,4,4,4,4,4,4,4,4,4,4,4,4,4,4,4,
4,4,4,4,4,4,4,4,4,4,4,4,4,4,4,4,
4,4,4,4,4,4,4,4,4,4,4,4,4,4,4,4,
4,4,4,4,4,4,4,4,4,4,4,4,4,4,4,4,
4,4,4,4,4,4,4,4,4,4,4,4,4,4,4,4,
4,4,4,4,4,4,4,4,4,4,4,4,4,4,4,4,
4,4,4,4,4,4,4,4,4,4,4,4,4,4,4,4,
4,4,4,4,4,4,4,4,4,4,4,4,4,4,4,4,
4,4,4,4,4,4,4,4,4,4,4,4,4,4,4,4,
4,4,4,4,4,4,4,4,4,4,4,4,4,4,4,4
</chunk>
   <chunk x="64" y="-16" width="16" height="16">
0,0,0,0,0,0,0,0,0,0,0,0,0,0,0,0,
0,0,0,0,0,0,0,0,0,0,0,0,0,0,0,0,
1,1,1,1,1,1,1,1,1,1,1,1,1,1,1,1,
1,1,1,1,1,1,1,1,1,1,1,1,1,1,1,1,
4,4,4,4,4,4,4,4,4,4,4,4,4,4,1,1,
4,4,4,4,4,4,4,4,4,4,4,4,4,4,1,1,
4,4,4,4,4,4,4,4,4,4,4,4,4,4,1,1,
4,4,4,4,4,4,4,4,4,4,4,4,4,4,1,1,
4,4,4,4,4,4,4,4,4,4,4,4,4,4,1,1,
4,4,4,4,4,4,4,4,4,4,4,4,4,4,1,1,
4,4,4,4,4,4,4,4,4,4,4,4,4,4,1,1,
4,4,4,4,4,4,4,4,4,4,4,4,4,4,1,1,
4,4,4,4,4,4,4,4,4,4,4,4,4,4,1,1,
4,4,4,4,4,4,4,4,4,4,4,4,4,4,1,1,
4,4,4,4,4,4,4,4,4,4,4,4,4,4,1,1,
4,4,4,4,4,4,4,4,4,4,4,4,4,4,1,1
</chunk>
   <chunk x="-16" y="0" width="16" height="16">
0,0,0,0,0,0,0,0,1,1,4,4,4,4,4,4,
0,0,0,0,0,0,0,0,1,1,4,4,4,4,4,4,
0,0,0,0,0,0,0,0,1,1,4,4,4,4,4,4,
0,0,0,0,0,0,0,0,1,1,4,4,4,4,4,4,
0,0,0,0,0,0,0,0,1,1,4,4,4,4,4,4,
0,0,0,0,0,0,0,0,1,1,4,4,4,4,4,4,
0,0,0,0,0,0,0,0,1,1,4,4,4,4,4,4,
0,0,0,0,0,0,0,0,1,1,4,4,4,4,4,4,
0,0,0,0,0,0,0,0,1,1,4,4,4,4,4,4,
0,0,0,0,0,0,0,0,1,1,4,4,4,4,4,4,
0,0,0,0,0,0,0,0,1,1,4,4,4,4,4,4,
0,0,0,0,0,0,0,0,1,1,4,4,4,4,4,4,
0,0,0,0,0,0,0,0,1,1,4,4,4,4,4,4,
0,0,0,0,0,0,0,0,1,1,4,4,4,4,4,4,
0,0,0,0,0,0,0,0,1,1,4,4,4,4,4,4,
0,0,0,0,0,0,0,0,1,1,4,4,4,4,4,4
</chunk>
   <chunk x="0" y="0" width="16" height="16">
4,4,4,4,4,4,4,4,4,4,4,4,4,4,4,4,
4,4,4,4,4,4,4,4,4,4,4,4,4,4,4,4,
4,4,4,4,4,4,4,4,4,4,4,4,4,4,4,4,
4,4,4,4,4,4,4,4,4,4,4,4,4,4,4,4,
4,4,4,4,4,4,4,4,4,4,4,4,4,4,4,4,
4,4,4,4,4,4,4,4,4,4,4,4,4,4,4,4,
4,4,4,4,4,4,4,4,4,4,4,4,4,4,4,4,
4,4,4,4,4,4,4,4,4,4,4,4,4,4,4,4,
4,4,4,4,4,4,4,4,4,4,4,4,4,4,4,4,
4,4,4,4,4,4,4,4,4,4,4,4,4,4,4,4,
4,4,4,4,4,4,4,4,4,4,4,4,4,4,4,4,
4,4,4,4,4,4,4,4,4,4,4,4,4,4,4,4,
4,4,4,4,4,4,4,4,4,4,4,4,4,4,4,4,
4,4,4,4,4,4,4,4,4,4,4,4,4,4,4,4,
4,4,4,4,4,4,4,4,4,4,4,4,4,4,4,4,
4,4,4,4,4,4,4,4,4,4,4,4,4,4,4,4
</chunk>
   <chunk x="16" y="0" width="16" height="16">
4,4,4,4,4,4,4,4,4,4,4,4,4,4,4,4,
4,4,4,4,4,4,4,4,4,4,4,4,4,4,4,4,
4,4,4,4,4,4,4,4,4,4,4,4,4,4,4,4,
4,4,4,4,4,4,4,4,4,4,4,4,4,4,4,4,
4,4,4,4,4,4,4,4,4,4,4,4,4,4,4,4,
4,4,4,4,4,4,4,4,4,4,4,4,4,4,4,4,
4,4,4,4,4,4,4,4,4,4,4,4,4,4,4,4,
4,4,4,4,4,4,4,4,4,4,4,4,4,4,4,4,
4,4,4,4,4,4,4,4,4,4,4,4,4,4,4,4,
4,4,4,4,4,4,4,4,4,4,4,4,4,4,4,4,
4,4,4,4,4,4,4,4,4,4,4,4,4,4,4,4,
4,4,4,4,4,4,4,4,4,4,4,4,4,4,4,4,
4,4,4,4,4,4,4,4,4,4,4,4,4,4,4,4,
4,4,4,4,4,4,4,4,4,4,4,4,4,4,4,4,
4,4,4,4,4,4,4,4,4,4,4,4,4,4,4,4,
4,4,4,4,4,4,4,4,4,4,4,4,4,4,4,4
</chunk>
   <chunk x="32" y="0" width="16" height="16">
4,4,4,4,4,4,4,4,4,4,4,4,4,4,4,4,
4,4,4,4,4,4,4,4,4,4,4,4,4,4,4,4,
4,4,4,4,4,4,4,4,4,4,4,4,4,4,4,4,
4,4,4,4,4,4,4,4,4,4,4,4,4,4,4,4,
4,4,4,4,4,4,4,4,4,4,4,4,4,4,4,4,
4,4,4,4,4,4,4,4,4,4,4,4,4,4,4,4,
4,4,4,4,4,4,4,4,4,4,4,4,4,4,4,4,
4,4,4,4,4,4,4,4,4,4,4,4,4,4,4,4,
4,4,4,4,4,4,4,4,4,4,4,4,4,4,4,4,
4,4,4,4,4,4,4,4,4,4,4,4,4,4,4,4,
4,4,4,4,4,4,4,4,4,4,4,4,4,4,4,4,
4,4,4,4,4,4,4,4,4,4,4,4,4,4,4,4,
4,4,4,4,4,4,4,4,4,4,4,4,4,4,4,4,
4,4,4,4,4,4,4,4,4,4,4,4,4,4,4,4,
4,4,4,4,4,4,4,4,4,4,4,4,4,4,4,4,
4,4,4,4,4,4,4,4,4,4,4,4,4,4,4,4
</chunk>
   <chunk x="48" y="0" width="16" height="16">
4,4,4,4,4,4,4,4,4,4,4,4,4,4,4,4,
4,4,4,4,4,4,4,4,4,4,4,4,4,4,4,4,
4,4,4,4,4,4,4,4,4,4,4,4,4,4,4,4,
4,4,4,4,4,4,4,4,4,4,4,4,4,4,4,4,
4,4,4,4,4,4,4,4,4,4,4,4,4,4,4,4,
4,4,4,4,4,4,4,4,4,4,4,4,4,4,4,4,
4,4,4,4,4,4,4,4,4,4,4,4,4,4,4,4,
4,4,4,4,4,4,4,4,4,4,4,4,4,4,4,4,
4,4,4,4,4,4,4,4,4,4,4,4,4,4,4,4,
4,4,4,4,4,4,4,4,4,4,4,4,4,4,4,4,
4,4,4,4,4,4,4,4,4,4,4,4,4,4,4,4,
4,4,4,4,4,4,4,4,4,4,4,4,4,4,4,4,
4,4,4,4,4,4,4,4,4,4,4,4,4,4,4,4,
4,4,4,4,4,4,4,4,4,4,4,4,4,4,4,4,
4,4,4,4,4,4,4,4,4,4,4,4,4,4,4,4,
4,4,4,4,4,4,4,4,4,4,4,4,4,4,4,4
</chunk>
   <chunk x="64" y="0" width="16" height="16">
4,4,4,4,4,4,4,4,4,4,4,4,4,4,1,1,
4,4,4,4,4,4,4,4,4,4,4,4,4,4,1,1,
4,4,4,4,4,4,4,4,4,4,4,4,4,4,1,1,
4,4,4,4,4,4,4,4,4,4,4,4,4,4,1,1,
4,4,4,4,4,4,4,4,4,4,4,4,4,4,1,1,
4,4,4,4,4,4,4,4,4,4,4,4,4,4,1,1,
4,4,4,4,4,4,4,4,4,4,4,4,4,4,1,1,
4,4,4,4,4,4,4,4,4,4,4,4,4,4,1,1,
4,4,4,4,4,4,4,4,4,4,4,4,4,4,1,1,
4,4,4,4,4,4,4,4,4,4,4,4,4,4,1,1,
4,4,4,4,4,4,4,4,4,4,4,4,4,4,1,1,
4,4,4,4,4,4,4,4,4,4,4,4,4,4,1,1,
4,4,4,4,4,4,4,4,4,4,4,4,4,4,1,1,
4,4,4,4,4,4,4,4,4,4,4,4,4,4,1,1,
4,4,4,4,4,4,4,4,4,4,4,4,4,4,1,1,
4,4,4,4,4,4,4,4,4,4,4,4,4,4,1,1
</chunk>
   <chunk x="-16" y="16" width="16" height="16">
0,0,0,0,0,0,0,0,1,1,4,4,4,4,4,4,
0,0,0,0,0,0,0,0,1,1,4,4,4,4,4,4,
0,0,0,0,0,0,0,0,1,1,4,4,4,4,4,4,
0,0,0,0,0,0,0,0,1,1,4,4,4,4,4,4,
0,0,0,0,0,0,0,0,1,1,4,4,4,4,4,4,
0,0,0,0,0,0,0,0,1,1,4,4,4,4,4,4,
0,0,0,0,0,0,0,0,1,1,4,4,4,4,4,4,
0,0,0,0,0,0,0,0,1,1,4,4,4,4,4,4,
0,0,0,0,0,0,0,0,1,1,4,4,4,4,4,4,
0,0,0,0,0,0,0,0,1,1,4,4,4,4,4,4,
0,0,0,0,0,0,0,0,1,1,4,4,4,4,4,4,
0,0,0,0,0,0,0,0,1,1,4,4,4,4,4,4,
0,0,0,0,0,0,0,0,1,1,4,4,4,4,4,4,
0,0,0,0,0,0,0,0,1,1,4,4,4,4,4,4,
0,0,0,0,0,0,0,0,1,1,4,4,4,4,4,4,
0,0,0,0,0,0,0,0,1,1,4,4,4,4,4,4
</chunk>
   <chunk x="0" y="16" width="16" height="16">
4,4,4,4,4,4,4,4,4,4,4,4,4,4,4,4,
4,4,4,4,4,4,4,4,4,4,4,4,4,4,4,4,
4,4,4,4,4,4,4,4,4,4,4,4,4,4,4,4,
4,4,4,4,4,4,4,4,4,4,4,4,4,4,4,4,
4,4,4,4,4,4,4,4,4,4,4,4,4,4,4,4,
4,4,4,4,4,4,4,4,4,4,4,4,4,4,4,4,
4,4,4,4,4,4,4,4,4,4,4,4,4,4,4,4,
4,4,4,4,4,4,4,4,4,4,4,4,4,4,4,4,
4,4,4,4,4,4,4,4,4,4,4,4,4,4,4,4,
4,4,4,4,4,4,4,4,4,4,4,4,4,4,4,4,
4,4,4,4,4,4,4,4,4,4,4,4,4,4,4,4,
4,4,4,4,4,4,4,4,4,4,4,4,4,4,4,4,
4,4,4,4,4,4,4,4,4,4,4,4,4,4,4,4,
4,4,4,4,4,4,4,4,4,4,4,4,4,4,4,4,
4,4,4,4,4,4,4,4,4,4,4,4,4,4,4,4,
4,4,4,4,4,4,4,4,4,4,4,4,4,4,4,4
</chunk>
   <chunk x="16" y="16" width="16" height="16">
4,4,4,4,4,4,4,4,4,4,4,4,4,4,4,4,
4,4,4,4,4,4,4,4,4,4,4,4,4,4,4,4,
4,4,4,4,4,4,4,4,4,4,4,4,4,4,4,4,
4,4,4,4,4,4,4,4,4,4,4,4,4,4,4,4,
4,4,4,4,4,4,4,4,4,4,4,4,4,4,4,4,
4,4,4,4,4,4,4,4,4,4,4,4,4,4,4,4,
4,4,4,4,4,4,4,4,4,4,4,4,4,4,4,4,
4,4,4,4,4,4,4,4,4,4,4,4,4,4,4,4,
4,4,4,4,4,4,4,4,4,4,4,4,4,4,4,4,
4,4,4,4,4,4,4,4,4,4,4,4,4,4,4,4,
4,4,4,4,4,4,4,4,4,4,4,4,4,4,4,4,
4,4,4,4,4,4,4,4,4,4,4,4,4,4,4,4,
4,4,4,4,4,4,4,4,4,4,4,4,4,4,4,4,
4,4,4,4,4,4,4,4,4,4,4,4,4,4,4,4,
4,4,4,4,4,4,4,4,4,4,4,4,4,4,4,4,
4,4,4,4,4,4,4,4,4,4,4,4,4,4,4,4
</chunk>
   <chunk x="32" y="16" width="16" height="16">
4,4,4,4,4,4,4,4,4,4,4,4,4,4,4,4,
4,4,4,4,4,4,4,4,4,4,4,4,4,4,4,4,
4,4,4,1,4,4,4,1,1,1,4,4,4,4,4,4,
4,4,4,1,4,4,4,4,4,1,4,4,4,4,4,4,
4,4,4,1,4,4,4,4,4,1,4,4,4,4,4,4,
4,4,4,1,4,4,4,4,4,1,4,4,4,4,4,4,
4,4,4,1,4,4,4,4,4,1,4,4,4,4,4,4,
4,4,4,1,1,1,1,1,1,1,4,4,4,4,4,4,
4,4,4,4,4,4,4,4,4,4,4,4,4,4,4,4,
4,4,4,4,4,4,4,4,4,4,4,4,4,4,4,4,
4,4,4,4,4,4,4,4,4,4,4,4,4,4,4,4,
4,4,4,4,4,4,4,4,4,4,4,4,4,4,4,4,
4,4,4,4,4,4,4,4,4,4,4,4,4,4,4,4,
4,4,4,4,4,4,4,4,4,4,4,4,4,4,4,4,
4,4,4,4,4,4,4,4,4,4,4,4,4,4,4,4,
4,4,4,4,4,4,4,4,4,4,4,4,4,4,4,4
</chunk>
   <chunk x="48" y="16" width="16" height="16">
4,4,4,4,4,4,4,4,4,4,4,4,4,4,4,4,
4,4,4,4,4,4,4,4,4,4,4,4,4,4,4,4,
4,4,4,4,4,4,4,4,4,4,4,4,4,4,4,4,
4,4,4,4,4,4,4,4,4,4,4,4,4,4,4,4,
4,4,4,4,4,4,4,4,4,4,4,4,4,4,4,4,
4,4,4,4,4,4,4,4,4,4,4,4,4,4,4,4,
4,4,4,4,4,4,4,4,4,4,4,4,4,4,4,4,
4,4,4,4,4,4,4,4,4,4,4,4,4,4,4,4,
4,4,4,4,4,4,4,4,4,4,4,4,4,4,4,4,
4,4,4,4,4,4,4,4,4,4,4,4,4,4,4,4,
4,4,4,4,4,4,4,4,4,4,4,4,4,4,4,4,
4,4,4,4,4,4,4,4,4,4,4,4,4,4,4,4,
4,4,4,4,4,4,4,4,4,4,4,4,4,4,4,4,
4,4,4,4,4,4,4,4,4,4,4,4,4,4,4,4,
4,4,4,4,4,4,4,4,4,4,4,4,4,4,4,4,
4,4,4,4,4,4,4,4,4,4,4,4,4,4,4,4
</chunk>
   <chunk x="64" y="16" width="16" height="16">
4,4,4,4,4,4,4,4,4,4,4,4,4,4,1,1,
4,4,4,4,4,4,4,4,4,4,4,4,4,4,1,1,
4,4,4,4,4,4,4,4,4,4,4,4,4,4,1,1,
4,4,4,4,4,4,4,4,4,4,4,4,4,4,1,1,
4,4,4,4,4,4,4,4,4,4,4,4,4,4,1,1,
4,4,4,4,4,4,4,4,4,4,4,4,4,4,1,1,
4,4,4,4,4,4,4,4,4,4,4,4,4,4,1,1,
4,4,4,4,4,4,4,4,4,4,4,4,4,4,1,1,
4,4,4,4,4,4,4,4,4,4,4,4,4,4,1,1,
4,4,4,4,4,4,4,4,4,4,4,4,4,4,1,1,
4,4,4,4,4,4,4,4,4,4,4,4,4,4,1,1,
4,4,4,4,4,4,4,4,4,4,4,4,4,4,1,1,
4,4,4,4,4,4,4,4,4,4,4,4,4,4,1,1,
4,4,4,4,4,4,4,4,4,4,4,4,4,4,1,1,
4,4,4,4,4,4,4,4,4,4,4,4,4,4,1,1,
4,4,4,4,4,4,4,4,4,4,4,4,4,4,1,1
</chunk>
   <chunk x="-16" y="32" width="16" height="16">
0,0,0,0,0,0,0,0,1,1,4,4,4,4,4,4,
0,0,0,0,0,0,0,0,1,1,4,4,4,4,4,4,
0,0,0,0,0,0,0,0,1,1,4,4,4,4,4,4,
0,0,0,0,0,0,0,0,1,1,4,4,4,4,4,4,
0,0,0,0,0,0,0,0,1,1,4,4,4,4,4,4,
0,0,0,0,0,0,0,0,1,1,4,4,4,4,4,4,
0,0,0,0,0,0,0,0,1,1,4,4,4,4,4,4,
0,0,0,0,0,0,0,0,1,1,4,4,4,4,4,4,
0,0,0,0,0,0,0,0,1,1,4,4,4,4,4,4,
0,0,0,0,0,0,0,0,1,1,4,4,4,4,4,4,
0,0,0,0,0,0,0,0,1,1,4,4,4,4,4,4,
0,0,0,0,0,0,0,0,1,1,4,4,4,4,4,4,
0,0,0,0,0,0,0,0,1,1,4,4,4,4,4,4,
0,0,0,0,0,0,0,0,1,1,4,4,4,4,4,4,
0,0,0,0,0,0,0,0,1,1,4,4,4,4,4,4,
0,0,0,0,0,0,0,0,1,1,4,4,4,4,4,4
</chunk>
   <chunk x="0" y="32" width="16" height="16">
4,4,4,4,4,4,4,4,4,4,4,4,4,4,4,4,
4,4,4,4,4,4,4,4,4,4,4,4,4,4,4,4,
4,4,4,4,4,4,4,4,4,4,4,1,4,4,4,4,
4,4,4,4,4,4,4,4,4,4,4,1,4,4,4,4,
4,4,4,4,4,4,4,4,4,4,4,1,4,4,4,4,
4,4,4,4,4,4,4,4,4,4,4,1,4,4,4,4,
4,4,4,4,4,4,4,4,4,4,4,1,4,4,4,4,
4,4,4,4,4,4,4,4,4,4,4,1,4,4,4,4,
4,4,4,4,4,4,4,4,4,4,4,1,4,4,4,4,
4,4,4,4,4,4,4,4,4,4,4,1,4,4,4,4,
4,4,4,4,4,4,4,4,4,4,4,1,4,4,4,4,
4,4,4,4,4,4,4,4,4,4,4,1,4,4,4,4,
4,4,4,4,4,4,4,4,4,4,4,1,4,4,4,4,
4,4,4,4,4,4,4,4,4,4,4,1,4,4,4,4,
4,4,4,4,4,4,4,4,4,4,4,1,4,4,4,4,
4,4,4,4,4,4,4,4,4,4,4,1,4,4,4,4
</chunk>
   <chunk x="16" y="32" width="16" height="16">
4,4,4,4,4,4,4,4,4,4,4,4,4,4,4,4,
4,4,4,4,4,4,4,4,4,4,4,4,4,4,4,4,
4,4,4,4,1,4,4,4,4,4,4,4,4,4,4,4,
4,4,4,4,1,4,4,4,4,4,4,4,4,4,4,4,
4,4,4,4,1,4,4,4,4,4,4,4,4,4,4,4,
4,4,4,4,1,4,4,4,4,4,4,4,4,4,4,4,
4,4,4,4,1,4,4,4,4,4,4,4,4,4,4,4,
4,4,4,4,1,4,4,4,4,4,4,4,4,4,4,4,
4,4,4,4,1,4,4,4,4,4,4,4,4,4,4,4,
4,4,4,4,1,4,4,4,4,4,4,4,4,4,4,4,
4,4,4,4,1,4,4,4,4,4,4,4,4,4,4,4,
4,4,4,4,1,4,4,4,4,4,4,4,4,4,4,4,
4,4,4,4,1,4,4,4,4,4,4,4,4,4,4,4,
4,4,4,4,1,4,4,4,4,4,4,4,4,4,4,4,
4,4,4,4,1,4,4,4,4,4,4,4,4,4,4,4,
4,4,4,4,1,4,4,4,4,4,4,4,4,4,4,4
</chunk>
   <chunk x="32" y="32" width="16" height="16">
4,4,4,4,4,4,4,4,4,4,4,4,4,4,4,4,
4,4,4,4,4,4,4,4,4,4,4,4,4,4,4,4,
4,4,4,4,4,4,4,4,4,4,4,4,4,4,4,4,
4,4,4,4,4,4,4,4,4,4,4,4,4,4,4,4,
4,4,4,4,4,4,4,4,4,4,4,4,4,4,4,4,
4,4,4,4,4,4,4,4,4,4,4,4,4,4,4,4,
4,4,4,4,4,4,4,4,4,4,4,4,4,4,4,4,
4,4,4,4,4,4,4,4,4,4,4,4,4,4,4,4,
4,4,4,4,4,4,4,4,4,4,4,4,4,4,4,4,
4,4,4,4,4,4,4,4,4,4,4,4,4,4,4,4,
4,4,4,4,4,4,4,4,4,4,4,4,4,4,4,4,
4,4,4,4,4,4,4,4,4,4,4,4,4,4,4,4,
4,4,4,4,4,4,4,4,4,4,4,4,4,4,4,4,
4,4,4,4,4,4,4,4,4,7,7,7,7,7,7,7,
4,4,4,4,4,4,4,4,4,7,7,7,7,7,7,7,
4,4,4,4,4,4,4,4,4,7,7,7,7,7,7,7
</chunk>
   <chunk x="48" y="32" width="16" height="16">
4,4,4,4,4,4,4,4,4,4,4,4,4,4,4,4,
4,4,4,4,4,4,4,4,4,4,4,4,4,4,4,4,
4,4,4,4,4,4,4,4,4,4,4,4,4,4,4,4,
4,4,4,4,4,4,4,4,4,4,4,4,4,4,4,4,
4,4,4,4,4,4,4,4,4,4,4,4,4,4,4,4,
4,4,4,4,4,4,4,4,4,4,4,4,4,4,4,4,
4,4,4,4,4,4,4,4,4,4,4,4,4,4,4,4,
4,4,4,4,4,4,4,4,4,4,4,4,4,4,4,4,
4,4,4,4,4,4,4,4,4,4,4,4,4,4,4,4,
4,4,4,4,4,4,4,4,4,4,4,4,4,4,4,4,
4,4,4,4,4,4,4,4,4,4,4,4,4,4,4,4,
4,4,4,4,4,4,4,4,4,4,4,4,4,4,4,4,
4,4,4,4,4,4,4,4,4,4,4,4,4,4,4,4,
7,7,7,7,7,7,7,7,4,4,4,4,4,4,4,4,
7,7,7,7,7,7,7,7,4,4,4,4,4,4,4,4,
7,7,7,7,7,7,7,7,4,4,4,4,4,4,4,4
</chunk>
   <chunk x="64" y="32" width="16" height="16">
4,4,4,4,4,4,4,4,4,4,4,4,4,4,1,1,
4,4,4,4,4,4,4,4,4,4,4,4,4,4,1,1,
4,4,4,4,4,4,4,4,4,4,4,4,4,4,1,1,
4,4,4,4,4,4,4,4,4,4,4,4,4,4,1,1,
4,4,4,4,4,4,4,4,4,4,4,4,4,4,1,1,
4,4,4,4,4,4,4,4,4,4,4,4,4,4,1,1,
4,4,4,4,4,4,4,4,4,4,4,4,4,4,1,1,
4,4,4,4,4,4,4,4,4,4,4,4,4,4,1,1,
4,4,4,4,4,4,4,4,4,4,4,4,4,4,1,1,
4,4,4,4,4,4,4,4,4,4,4,4,4,4,1,1,
4,4,4,4,4,4,4,4,4,4,4,4,4,4,1,1,
4,4,4,4,4,4,4,4,4,4,4,4,4,4,1,1,
4,4,4,4,4,4,4,4,4,4,4,4,4,4,1,1,
4,4,4,4,4,4,4,4,4,4,4,4,4,4,1,1,
4,4,4,4,4,4,4,4,4,4,4,4,4,4,1,1,
4,4,4,4,4,4,4,4,4,4,4,4,4,4,1,1
</chunk>
   <chunk x="-16" y="48" width="16" height="16">
0,0,0,0,0,0,0,0,1,1,4,4,4,4,4,4,
0,0,0,0,0,0,0,0,1,1,4,4,4,4,4,4,
0,0,0,0,0,0,0,0,1,1,4,4,4,4,4,4,
0,0,0,0,0,0,0,0,1,1,4,4,4,4,4,4,
0,0,0,0,0,0,0,0,1,1,4,4,4,4,4,4,
0,0,0,0,0,0,0,0,1,1,4,4,4,4,4,4,
0,0,0,0,0,0,0,0,1,1,4,4,4,4,4,4,
0,0,0,0,0,0,0,0,1,1,4,4,4,4,4,4,
0,0,0,0,0,0,0,0,1,1,4,4,4,4,4,4,
0,0,0,0,0,0,0,0,1,1,4,4,4,4,4,4,
0,0,0,0,0,0,0,0,1,1,4,4,4,4,4,4,
0,0,0,0,0,0,0,0,1,1,4,4,4,4,4,4,
0,0,0,0,0,0,0,0,1,1,4,4,4,4,4,4,
0,0,0,0,0,0,0,0,1,1,4,4,4,4,4,4,
0,0,0,0,0,0,0,0,1,1,4,4,4,4,4,4,
0,0,0,0,0,0,0,0,1,1,4,4,4,4,4,4
</chunk>
   <chunk x="0" y="48" width="16" height="16">
4,4,4,4,4,4,4,4,4,4,4,1,4,4,4,4,
4,4,4,4,4,4,4,4,4,4,4,1,4,4,4,4,
4,4,4,4,4,4,4,4,4,4,4,1,4,4,4,4,
4,4,4,4,4,4,4,4,4,4,4,1,4,4,4,4,
4,4,4,4,4,4,4,4,4,4,4,1,4,4,4,4,
4,4,4,4,4,4,4,4,4,4,4,1,4,4,4,4,
4,4,4,4,4,4,4,4,4,4,4,1,4,4,4,4,
4,4,4,4,4,4,4,4,4,4,4,1,1,1,1,1,
4,4,4,4,4,4,4,4,4,4,4,4,4,4,4,4,
4,4,4,4,4,4,4,4,4,4,4,4,4,4,4,4,
4,4,4,4,4,4,4,4,4,4,4,4,4,4,4,4,
4,4,4,4,4,4,4,4,4,4,4,4,4,4,4,4,
4,4,4,4,4,4,4,4,4,4,4,4,4,4,4,4,
4,4,4,4,4,4,4,4,4,4,4,4,4,4,4,4,
4,4,4,4,4,4,4,4,4,4,4,4,4,4,4,4,
4,4,4,4,4,4,4,4,4,4,4,4,4,4,4,4
</chunk>
   <chunk x="16" y="48" width="16" height="16">
4,4,4,4,1,4,4,4,4,4,4,4,4,4,4,4,
4,4,4,4,1,4,4,4,4,4,4,4,4,4,4,4,
4,4,4,4,1,4,4,4,4,4,4,4,4,4,4,4,
4,4,4,4,1,4,4,4,4,4,4,4,4,4,4,4,
4,4,4,4,1,4,4,4,4,4,4,4,4,4,4,4,
4,4,4,4,1,4,4,4,4,4,4,4,4,4,4,4,
4,4,4,4,1,4,4,4,4,4,4,4,4,4,4,4,
1,1,1,1,1,4,4,4,4,4,4,4,4,4,4,4,
4,4,4,4,4,4,4,4,4,4,4,4,4,4,4,4,
4,4,4,4,4,4,4,4,4,4,4,4,4,4,4,4,
4,4,4,4,4,4,4,4,4,4,4,4,4,4,4,4,
4,4,4,4,4,4,4,4,4,4,4,4,4,4,4,4,
4,4,4,4,4,4,4,4,4,4,4,4,4,4,4,4,
4,4,4,4,4,4,4,4,4,4,4,4,4,4,4,4,
4,4,4,4,4,4,4,4,4,4,4,4,4,4,4,4,
4,4,4,4,4,4,4,4,4,4,4,4,4,4,4,4
</chunk>
   <chunk x="32" y="48" width="16" height="16">
4,4,4,4,4,4,4,4,4,7,7,7,7,7,7,7,
4,4,4,4,4,4,4,4,4,7,7,7,7,7,7,7,
4,4,4,4,4,4,4,4,4,7,7,7,7,7,7,7,
4,4,4,4,4,4,4,4,4,7,7,7,7,7,7,7,
4,4,4,4,4,4,4,4,4,7,7,7,7,7,7,7,
4,4,4,4,4,4,4,4,4,7,7,7,7,7,7,7,
4,4,4,4,4,4,4,4,4,7,7,7,7,7,7,7,
4,4,4,4,4,4,4,4,4,7,7,7,7,7,7,7,
4,4,4,4,4,4,4,4,4,7,7,7,7,7,7,7,
4,4,4,4,4,4,4,4,4,7,7,7,7,7,7,7,
4,4,4,4,4,4,4,4,4,7,7,7,7,7,7,7,
4,4,4,4,4,4,4,4,4,7,7,7,7,7,7,7,
4,4,4,4,4,4,4,4,4,4,4,4,4,4,4,4,
4,4,4,4,4,4,4,4,4,4,4,4,4,4,4,4,
4,4,4,4,4,4,4,4,4,4,4,4,4,4,4,4,
4,4,4,4,4,4,4,4,4,4,4,4,4,4,4,4
</chunk>
   <chunk x="48" y="48" width="16" height="16">
7,7,7,7,7,7,7,7,4,4,4,4,4,4,4,4,
7,7,7,7,7,7,7,7,4,4,4,4,4,4,4,4,
7,7,7,7,7,7,7,7,4,4,4,4,4,4,4,4,
7,7,7,7,7,7,7,7,4,4,4,4,4,4,4,4,
7,7,7,7,7,7,7,7,4,4,4,4,4,4,4,4,
7,7,7,7,7,7,7,7,4,4,4,4,4,4,4,4,
7,7,7,7,7,7,7,7,4,4,4,4,4,4,4,4,
7,7,7,7,7,7,7,7,4,4,4,4,4,4,4,4,
7,7,7,7,7,7,7,7,4,4,4,4,4,4,4,4,
7,7,7,7,7,7,7,7,4,4,4,4,4,4,4,4,
7,7,7,7,7,7,7,7,4,4,4,4,4,4,4,4,
7,7,7,7,7,7,7,7,4,4,4,4,4,4,4,4,
4,4,4,4,4,4,4,4,4,4,4,4,4,4,4,4,
4,4,4,4,4,4,4,4,4,4,4,4,4,4,4,4,
4,4,4,4,4,4,4,4,4,4,4,4,4,4,4,4,
4,4,4,4,4,4,4,4,4,4,4,4,4,4,4,4
</chunk>
   <chunk x="64" y="48" width="16" height="16">
4,4,4,4,4,4,4,4,4,4,4,4,4,4,1,1,
4,4,4,4,4,4,4,4,4,4,4,4,4,4,1,1,
4,4,4,4,4,4,4,4,4,4,4,4,4,4,1,1,
4,4,4,4,4,4,4,4,4,4,4,4,4,4,1,1,
4,4,4,4,4,4,4,4,4,4,4,4,4,4,1,1,
4,4,4,4,4,4,4,4,4,4,4,4,4,4,1,1,
4,4,4,4,4,4,4,4,4,4,4,4,4,4,1,1,
4,4,4,4,4,4,4,4,4,4,4,4,4,4,1,1,
4,4,4,4,4,4,4,4,4,4,4,4,4,4,1,1,
4,4,4,4,4,4,4,4,4,4,4,4,4,4,1,1,
4,4,4,4,4,4,4,4,4,4,4,4,4,4,1,1,
4,4,4,4,4,4,4,4,4,4,4,4,4,4,1,1,
4,4,4,4,4,4,4,4,4,4,4,4,4,4,1,1,
4,4,4,4,4,4,4,4,4,4,4,4,4,4,1,1,
4,4,4,4,4,4,4,4,4,4,4,4,4,4,1,1,
4,4,4,4,4,4,4,4,4,4,4,4,4,4,1,1
</chunk>
   <chunk x="-16" y="64" width="16" height="16">
0,0,0,0,0,0,0,0,1,1,4,4,4,4,4,4,
0,0,0,0,0,0,0,0,1,1,4,4,4,4,4,4,
0,0,0,0,0,0,0,0,1,1,4,4,4,4,4,4,
0,0,0,0,0,0,0,0,1,1,4,4,4,4,4,4,
0,0,0,0,0,0,0,0,1,1,4,4,4,4,4,4,
0,0,0,0,0,0,0,0,1,1,4,4,4,4,4,4,
0,0,0,0,0,0,0,0,1,1,4,4,4,4,4,4,
0,0,0,0,0,0,0,0,1,1,4,4,4,4,4,4,
0,0,0,0,0,0,0,0,1,1,4,4,4,4,4,4,
0,0,0,0,0,0,0,0,1,1,4,4,4,4,4,4,
0,0,0,0,0,0,0,0,1,1,4,4,4,4,4,4,
0,0,0,0,0,0,0,0,1,1,4,4,4,4,4,4,
0,0,0,0,0,0,0,0,1,1,4,4,4,4,4,4,
0,0,0,0,0,0,0,0,1,1,4,4,4,4,4,4,
0,0,0,0,0,0,0,0,1,1,4,4,4,4,4,4,
0,0,0,0,0,0,0,0,1,1,1,1,1,1,1,1
</chunk>
   <chunk x="0" y="64" width="16" height="16">
4,4,4,4,4,4,4,4,4,4,4,4,4,4,4,4,
4,4,4,4,4,4,4,4,4,4,4,4,4,4,4,4,
4,4,4,4,4,4,4,4,4,4,4,4,4,4,4,4,
4,4,4,4,4,4,4,4,4,4,4,4,4,4,4,4,
4,4,4,4,4,4,4,4,4,4,4,4,4,4,4,4,
4,4,4,4,4,4,4,4,4,4,4,4,4,4,4,4,
4,4,4,4,4,4,4,4,4,4,4,4,4,4,4,4,
4,4,4,4,4,4,4,4,4,4,4,4,4,4,4,4,
4,4,4,4,4,4,4,4,4,4,4,4,4,4,4,4,
4,4,4,4,4,4,4,4,4,4,4,4,4,4,4,4,
4,4,4,4,4,4,4,4,4,4,4,4,4,4,4,4,
4,4,4,4,4,4,4,4,4,4,4,4,4,4,4,4,
4,4,4,4,4,4,4,4,4,4,4,4,4,4,4,4,
4,4,4,4,4,4,4,4,4,4,4,4,4,4,4,4,
4,4,4,4,4,4,4,4,4,4,4,4,4,4,4,4,
1,1,1,1,1,1,1,1,1,1,1,1,1,1,1,1
</chunk>
   <chunk x="16" y="64" width="16" height="16">
4,4,4,4,4,4,4,4,4,4,4,4,4,4,4,4,
4,4,4,4,4,4,4,4,4,4,4,4,4,4,4,4,
4,4,4,4,4,4,4,4,4,4,4,4,4,4,4,4,
4,4,4,4,4,4,4,4,4,4,4,4,4,4,4,4,
4,4,4,4,4,4,4,4,4,4,4,4,4,4,4,4,
4,4,4,4,4,4,4,4,4,4,4,4,4,4,4,4,
4,4,4,4,4,4,4,4,4,4,4,4,4,4,4,4,
4,4,4,4,4,4,4,4,4,4,4,4,4,4,4,4,
4,4,4,4,4,4,4,4,4,4,4,4,4,4,4,4,
4,4,4,4,4,4,4,4,4,4,4,4,4,4,4,4,
4,4,4,4,4,4,4,4,4,4,4,4,4,4,4,4,
4,4,4,4,4,4,4,4,4,4,4,4,4,4,4,4,
4,4,4,4,4,4,4,4,4,4,4,4,4,4,4,4,
4,4,4,4,4,4,4,4,4,4,4,4,4,4,4,4,
4,4,4,4,4,4,4,4,4,4,4,4,4,4,4,4,
1,1,1,1,1,1,1,1,1,1,1,1,1,1,1,1
</chunk>
   <chunk x="32" y="64" width="16" height="16">
4,4,4,4,4,4,4,4,4,4,4,4,4,4,4,4,
4,4,4,4,4,4,4,4,4,4,4,4,4,4,4,4,
4,4,4,4,4,4,4,4,4,4,4,4,4,4,4,4,
4,4,4,4,4,4,4,4,4,4,4,4,4,4,4,4,
4,4,4,4,4,4,4,4,4,4,4,4,4,4,4,4,
4,4,4,4,4,4,4,4,4,4,4,4,4,4,4,4,
4,4,4,4,4,4,4,4,4,4,4,4,4,4,4,4,
4,4,4,4,4,4,4,4,4,4,4,4,4,4,4,4,
4,4,4,4,4,4,4,4,4,4,4,4,4,4,4,4,
4,4,4,4,4,4,4,4,4,4,4,4,4,4,4,4,
4,4,4,4,4,4,4,4,4,4,4,4,4,4,4,4,
4,4,4,4,4,4,4,4,4,4,4,4,4,4,4,4,
4,4,4,4,4,4,4,4,4,4,4,4,4,4,4,1,
4,4,4,4,4,4,4,4,4,4,4,4,4,4,4,4,
4,4,4,4,4,4,4,4,4,4,4,4,4,4,4,4,
1,1,1,1,1,1,1,1,1,1,1,1,1,1,1,1
</chunk>
   <chunk x="48" y="64" width="16" height="16">
4,4,4,4,4,4,4,4,4,4,4,4,4,4,4,4,
4,4,4,4,4,4,4,4,4,4,4,4,4,4,4,4,
4,4,4,4,4,4,4,4,4,4,4,4,4,4,4,4,
4,4,4,4,4,4,4,4,4,4,4,4,4,4,4,4,
4,4,4,4,4,4,4,4,4,4,4,4,4,4,4,4,
4,4,4,4,4,4,1,1,1,1,1,1,1,1,1,1,
4,4,4,4,4,4,4,4,4,4,4,4,4,4,4,4,
4,4,4,4,4,4,4,4,4,4,4,4,4,4,4,4,
4,4,4,4,4,4,4,4,4,4,4,4,4,4,4,4,
4,4,4,4,4,4,4,4,4,4,4,4,4,4,4,4,
4,4,4,4,4,4,4,4,4,4,4,4,4,4,4,4,
4,4,4,4,4,4,4,4,4,4,4,4,4,4,4,4,
1,1,1,1,1,1,1,1,1,1,1,1,1,1,1,1,
4,4,4,4,4,4,4,4,4,4,4,4,4,4,4,4,
4,4,4,4,4,4,4,4,4,4,4,4,4,4,4,4,
1,1,1,1,1,1,1,1,1,1,1,1,1,1,1,1
</chunk>
   <chunk x="64" y="64" width="16" height="16">
4,4,4,4,4,4,4,4,4,4,4,4,4,4,1,1,
4,4,4,4,4,4,4,4,4,4,4,4,4,4,1,1,
4,4,4,4,4,4,4,4,4,4,4,4,4,4,1,1,
4,4,4,4,4,4,4,4,4,4,4,4,4,4,1,1,
4,4,4,4,4,4,4,4,4,4,4,4,4,4,1,1,
1,4,4,4,4,4,4,4,4,4,4,4,4,4,1,1,
1,4,4,4,4,4,4,4,4,4,4,4,4,4,1,1,
1,4,4,4,4,4,4,4,4,4,4,4,4,4,1,1,
1,4,4,4,4,4,4,4,4,4,4,4,4,4,1,1,
1,4,4,4,4,4,4,4,4,4,4,4,4,4,1,1,
1,4,4,4,4,4,4,4,4,4,4,4,4,4,1,1,
1,4,4,4,4,4,4,4,4,4,4,4,4,4,1,1,
1,4,4,4,4,4,4,4,4,4,4,4,4,4,1,1,
4,4,4,4,4,4,4,4,4,4,4,4,4,4,1,1,
4,4,4,4,4,4,4,4,4,4,4,4,4,4,1,1,
1,1,1,1,1,1,1,1,1,1,1,1,1,1,1,1
</chunk>
  </data>
 </layer>
</map>
